X:1
T:Title
%%score { ( 1 4 ) | ( 2 3 ) }
L:1/8
M:2/4
K:Eb
V:1 treble nm="Grand Piano"
V:4 treble 
V:2 bass 
V:3 bass 
V:1
 z2 z[Q:1/4=94] [GB] | [GB]2 [EG][EG] | [EG] [DF]2 [EG] | [FA][DF] [GB][FA] | G3 B | e2 dc | %6
 c B2 B | cE EF | G3 G | [FA]2 [DB][DF] | [EG]2 [EG][GB] | [Ge]2 [Bd][Ac] | [GB]3 [GB] | cA ec | %14
 [Ac] [GB]2 [B,EG] | [B,DB]2 [A,DF]>[B,DG] | [G,E]4 | G2 G>G | [GB]4 | c2 c>c | e4 | [Ge]2 z2 | %22
 [GB] [Ge]2 [B,EG] | %23
 [B,DB]2 [A,DF]>[B,DG][Q:1/4=93][Q:1/4=91][Q:1/4=90][Q:1/4=88][Q:1/4=87][Q:1/4=85][Q:1/4=84][Q:1/4=82][Q:1/4=81][Q:1/4=79][Q:1/4=78][Q:1/4=76][Q:1/4=75][Q:1/4=73][Q:1/4=72] | %24
[M:3/8] [G,E]3 |] %25
V:2
 z2 z [E,B,] | [E,B,]2 [E,B,][E,B,] | [B,,B,] [B,,B,]2 [B,,B,] | [B,,B,]2 [B,,B,][B,,B,] | %4
 [E,B,E]3 [E,G,E] | [E,CE]2 [E,B,E][E,A,E] | [E,A,E] [E,G,E]2 [E,G,E] | .E2 z2 | [E,B,E]3 [E,B,E] | %9
 [D,B,]2 [B,,B,][B,,B,] | [E,B,]2 [E,B,][E,B,] | [E,B,]2 [E,E][E,E] | [E,E]3 [E,E] | .[EA]2 z2 | %14
 [E,E] [E,E]2 E, | B,,2 B,,>B,, | E,4 | E2 E>E | E,2 E,>E, | [A,EA]2 A>A | A4[K:bass] | %21
 .[E,B,]2 [E,E][E,E] | [E,E] [E,B,]2 E, | B,,2 B,,>B,, |[M:3/8] E,3 |] %25
V:3
 x4 | x4 | x4 | x4 | x4 | x4 | x4 | A,-[A,C] [A,C][A,=B,E] | x4 | x4 | x4 | x4 | x4 | %13
 A,-[A,CE] [A,CA][A,EA] | x4 | x4 | x4 | x4 | x4 | x4 | [A,C]2 A,>[K:bass]A, | x4 | x4 | x4 | %24
[M:3/8] x3 |] %25
V:4
 x4 | x4 | x4 | x4 | x4 | x4 | x4 | x4 | x4 | x4 | x4 | x4 | x4 | x4 | x4 | x4 | x4 | x4 | E2 E>E | %19
 x4 | z2 C>C | z [E,B,] [Bd][Ac] | x4 | x4 |[M:3/8] x3 |] %25

